svg/white/etp.svg

<svg xmlns="http://www.w3.org/2000/svg" width="32" height="32" viewBox="0 0 32 32">
  <path fill="#FFF" fill-rule="evenodd" d="M16,32 C7.163444,32 0,24.836556 0,16 C0,7.163444 7.163444,0 16,0 C24.836556,0 32,7.163444 32,16 C32,24.836556 24.836556,32 16,32 Z M18.0799626,12.5742409 L18.0856831,12.5812408 C17.4824878,12.233365 16.8754787,11.8914286 16.2780038,11.5335832 C16.1015157,11.4279478 15.9669779,11.408857 15.7805319,11.5250984 C15.2646271,11.8470957 14.7294422,12.1379113 14.2105713,12.455454 C14.0690418,12.5419987 13.9696745,12.5326655 13.8338655,12.4522722 C13.2726205,12.1194569 12.7058668,11.7955506 12.1369945,11.4758867 C12.0615686,11.433675 11.9369887,11.3901905 11.8772412,11.4232811 C11.2236206,11.7843083 10.5784749,12.160396 9.90620974,12.5466654 C10.512795,12.9017532 11.0856929,13.2483563 11.6706675,13.5735353 C11.8700376,13.6844737 11.951184,13.8034727 11.9497009,14.0435918 C11.9378362,16.1111194 11.9429211,18.178647 11.9429211,20.2461745 L11.9429211,20.566899 C12.0590261,20.5060208 12.1359351,20.4693241 12.2094542,20.4266881 C12.7276895,20.1252665 13.2414755,19.8155722 13.7654313,19.5245444 C13.9402245,19.4276058 14.00654,19.3204856 14.0056925,19.1134571 C13.9963702,17.0548385 13.999972,14.9960078 13.999972,12.9371771 L13.999972,12.6217556 C14.0887457,12.6660886 14.1506119,12.6930277 14.2088763,12.7263305 C14.7370695,13.0283885 15.2601778,13.3395676 15.794939,13.6297469 C15.9671898,13.7232916 16.0180387,13.830624 16.0174031,14.0219556 C16.0101995,16.3192085 16.0127419,18.6166735 16.0127419,20.9139263 L16.0127419,21.2388932 C16.6578877,20.8356543 17.2574813,20.4527788 17.8668209,20.0860244 C18.0248763,19.9905707 18.074454,19.8832383 18.0736065,19.7042095 C18.0668267,18.2200102 18.0685216,16.7353867 18.0702166,15.2509753 C18.0712759,14.3588012 18.0765727,13.4666271 18.0799626,12.5742409 Z M18.0857467,12.5812832 C18.0857467,12.5812832 18.0800262,12.5742833 18.0800262,12.5740712 C18.6813147,12.9242803 19.2785777,13.2821257 19.886858,13.6196076 C20.0527526,13.7114553 20.0951267,13.817515 20.094703,13.9946347 C20.0894062,16.0784954 20.0913131,18.1621441 20.0913131,20.2460048 L20.0913131,20.5747899 C20.7858246,20.1730358 21.4407164,19.7977966 22.0890402,19.4117393 C22.1360755,19.3835274 22.1540845,19.2749223 22.1542964,19.2038623 C22.1576863,17.0406689 22.1589575,14.8774755 22.1502708,12.7142821 C22.1500589,12.6268889 22.0718787,12.5047082 21.9943341,12.4586782 C21.4265211,12.1214084 20.8529876,11.7928355 20.2711911,11.4797473 C20.1779681,11.429475 20.0120735,11.4267175 19.919698,11.4765655 C19.3468001,11.7868962 18.7844957,12.117166 18.221132,12.4448905 C18.1677406,12.4758599 18.1304514,12.5352533 18.0857467,12.5812832 Z M6.93928087,18.7879387 C7.73358346,18.7845447 8.36177956,18.1503078 8.35796589,17.3559207 C8.35415222,16.563867 7.71790504,15.9379027 6.92000065,15.941933 C6.1261218,15.9459632 5.49390016,16.5835941 5.50004441,17.3747994 C5.50618865,18.1647319 6.14434267,18.7915447 6.93928087,18.7879387 Z M8.85408191,23.0746592 C9.59202694,23.0697804 10.1931036,22.4571796 10.1856881,21.7177315 C10.1782727,20.9816773 9.5513478,20.3654705 8.82632687,20.3807431 C8.0843563,20.396652 7.48370336,21.011374 7.49387315,21.7448828 C7.50404293,22.4868764 8.11041637,23.0793258 8.85408191,23.0746592 Z M7.76667763,11.3993965 C7.03869052,11.3974874 6.47299622,11.9587553 6.46981816,12.6856884 C6.46664011,13.4155912 7.02470706,13.9893741 7.74527871,13.9978589 C8.47263022,14.0061315 9.0650202,13.4211063 9.06523207,12.6943853 C9.06523207,11.9786945 8.48618993,11.4013056 7.76667763,11.3993965 Z M25.2889419,16.3046571 C25.9595121,16.3006268 26.498087,15.7609951 26.4999938,15.0904858 C26.5021125,14.4254915 25.9576053,13.879072 25.2883063,13.8744054 C24.6107444,13.8699509 24.0573386,14.4261279 24.0643303,15.1044857 C24.071322,15.7720253 24.6187955,16.3088995 25.2889419,16.3046571 Z M9.54194075,8.61709026 C9.53982204,9.24178183 10.0156832,9.72562613 10.6385826,9.73198971 C11.2502528,9.73814117 11.7443348,9.24602422 11.748996,8.62599928 C11.7534453,8.00936825 11.2642362,7.51428162 10.6472693,7.51131195 C10.0281836,7.50813016 9.54405945,7.99261081 9.54194075,8.61709026 Z M24.6363595,20.9089203 C25.2596826,20.90489 25.7353319,20.4210457 25.7323657,19.794233 C25.7293996,19.1788747 25.2287495,18.680182 24.6206811,18.6869698 C24.0068922,18.6939698 23.5221325,19.1911776 23.5255224,19.8103541 C23.5287004,20.4346214 24.0126127,20.9129506 24.6363595,20.9089203 Z M15.9860886,6.85406006 C15.9964703,6.38463987 15.633748,6.00600679 15.1684803,6.00006744 C14.7169842,5.99434022 14.3415496,6.35409468 14.3267187,6.80654532 C14.3112522,7.27766245 14.6635928,7.65417435 15.1335217,7.66881058 C15.6023911,7.68344682 15.9759189,7.32666203 15.9860886,6.85406006 Z M21.7570815,24.3560723 C22.2380276,24.3603147 22.6051992,24.0045905 22.6062586,23.5338976 C22.607106,23.0729622 22.2477736,22.7085411 21.7875909,22.7034502 C21.3119415,22.6983594 20.9422275,23.0585381 20.9390494,23.5300795 C20.9356595,23.98953 21.2945681,24.352042 21.7570815,24.3560723 Z M17.4774452,25.9999975 C17.9289413,26.0010581 18.274714,25.6663337 18.2802227,25.2227921 C18.2857313,24.7936746 17.9234327,24.4296777 17.4886744,24.4273444 C17.045865,24.4250111 16.695643,24.7705536 16.6935243,25.2117619 C16.6914056,25.6606065 17.0280679,25.999149 17.4774452,25.9999975 Z M20.1045338,8.2765326 C20.4884432,8.27801744 20.8202324,7.95177783 20.8217155,7.57102355 C20.8229867,7.18814808 20.496918,6.85915092 20.1132205,6.85660549 C19.7254974,6.85384794 19.4057848,7.17160276 19.4028186,7.56211454 C19.4000643,7.95283843 19.716387,8.27504777 20.1045338,8.2765326 Z M13.5672688,24.5594948 C13.5738368,24.2145887 13.3037019,23.9316214 12.9608954,23.923773 C12.6206313,23.9161367 12.3403266,24.1889222 12.3318518,24.5361617 C12.323377,24.8870071 12.5865202,25.1619138 12.9365303,25.1680653 C13.2846335,25.1744289 13.5607008,24.9080069 13.5672688,24.5594948 Z M24.2304156,10.5797036 C24.2242714,10.2791304 23.982739,10.0487688 23.6835778,10.0578899 C23.3822979,10.0670111 23.1562321,10.3064938 23.1638594,10.6081276 C23.1712749,10.9040341 23.4204346,11.1426684 23.7117566,11.1333352 C24.0115534,11.1235777 24.236348,10.8834585 24.2304156,10.5797036 Z"/>
</svg>

<svg xmlns="http://www.w3.org/2000/svg" width="32" height="32"><path fill="#FFF" fill-rule="evenodd" d="M16 32C7.163 32 0 24.837 0 16S7.163 0 16 0s16 7.163 16 16-7.163 16-16 16zm2.08-19.426l.006.007c-.604-.348-1.21-.69-1.808-1.047-.176-.106-.311-.125-.497-.009-.516.322-1.052.613-1.57.93-.142.087-.241.078-.377-.003a84.036 84.036 0 0 0-1.697-.976c-.075-.042-.2-.086-.26-.053-.653.361-1.299.737-1.97 1.124.606.355 1.179.701 1.764 1.027.199.11.28.23.279.47-.012 2.067-.007 4.135-.007 6.202v.32c.116-.06.193-.097.266-.14.519-.3 1.032-.61 1.556-.901.175-.097.242-.205.24-.412-.009-2.058-.005-4.117-.005-6.176v-.315c.089.044.15.071.209.104.528.302 1.051.614 1.586.904.172.093.223.2.222.392-.007 2.297-.004 4.595-.004 6.892v.325c.645-.403 1.244-.786 1.854-1.153.158-.095.207-.203.207-.382a779.998 779.998 0 0 1-.004-4.453c.001-.892.007-1.784.01-2.677zm.006.007l-.006-.007c.601.35 1.199.708 1.807 1.046.166.091.208.198.208.375-.006 2.083-.004 4.167-.004 6.251v.329c.695-.402 1.35-.777 1.998-1.163.047-.028.065-.137.065-.208.004-2.163.005-4.327-.004-6.49 0-.087-.078-.21-.156-.255a46.874 46.874 0 0 0-1.723-.98.43.43 0 0 0-.351-.002c-.573.31-1.136.64-1.699.968-.053.03-.09.09-.135.136zM6.939 18.788a1.416 1.416 0 0 0 1.419-1.432 1.417 1.417 0 0 0-1.438-1.414 1.419 1.419 0 0 0-1.42 1.433c.006.79.644 1.417 1.44 1.413zm1.915 4.287a1.347 1.347 0 0 0 1.332-1.357c-.008-.736-.635-1.353-1.36-1.337a1.361 1.361 0 0 0-1.332 1.364c.01.742.616 1.334 1.36 1.33zM7.767 11.399a1.275 1.275 0 0 0-1.297 1.287 1.284 1.284 0 0 0 1.275 1.312 1.303 1.303 0 0 0 1.32-1.304c0-.715-.579-1.293-1.298-1.295zm17.522 4.906a1.215 1.215 0 0 0 0-2.43 1.215 1.215 0 0 0 0 2.43zM9.542 8.617a1.092 1.092 0 0 0 1.097 1.115 1.102 1.102 0 0 0 1.11-1.106 1.101 1.101 0 0 0-1.102-1.115 1.09 1.09 0 0 0-1.105 1.106zM24.636 20.91a1.088 1.088 0 0 0 1.096-1.115 1.108 1.108 0 0 0-1.111-1.107 1.107 1.107 0 0 0-1.095 1.123 1.087 1.087 0 0 0 1.11 1.099zm-8.65-14.055A.826.826 0 0 0 15.168 6a.834.834 0 0 0-.841.807.823.823 0 0 0 .807.862.818.818 0 0 0 .852-.815zm5.771 17.502c.481.004.848-.351.85-.822a.82.82 0 0 0-.82-.83.823.823 0 0 0-.848.826.814.814 0 0 0 .818.826zM17.477 26a.779.779 0 0 0 .803-.777.8.8 0 0 0-.791-.796.782.782 0 0 0-.795.785.767.767 0 0 0 .783.788zm2.628-17.723a.725.725 0 0 0 .717-.706.725.725 0 0 0-.709-.714.71.71 0 0 0-.008 1.42zm-6.538 16.282a.621.621 0 0 0-.606-.635.62.62 0 0 0-.63.612.606.606 0 0 0 .606.632.612.612 0 0 0 .63-.609zM24.23 10.58a.527.527 0 0 0-.546-.521.529.529 0 0 0-.52.55.539.539 0 0 0 .548.525c.3-.01.524-.25.518-.553z"/></svg>
